public/assets/logos/utsw-white.svg

<svg fill="none" height="31" viewBox="0 0 30 31" width="30" xmlns="http://www.w3.org/2000/svg"><path clip-rule="evenodd" d="m15.2431 15.9683c0 4.118-1.8698 6.1891-6.11392 6.2324-4.25563-.042-6.12918-2.1093-6.12918-6.2324v-8.14547h3.74455v8.36467c0 1.8073.65256 2.7492 2.38463 2.7925 1.72312-.0472 2.37062-.989 2.37062-2.7925v-8.36467h3.5158.2275 11.7569v3.03207h-4.2862v11.0489h-3.7433v-11.0489h-3.7274z" fill="#fff" fill-rule="evenodd"/></svg>

<svg width="30" height="31" viewBox="0 0 30 31" fill="none" xmlns="http://www.w3.org/2000/svg">
<path fill-rule="evenodd" clip-rule="evenodd" d="M15.2431 15.9683C15.2431 20.0863 13.3733 22.1574 9.12918 22.2007C4.87355 22.1587 3 20.0914 3 15.9683V7.82283H6.74455V16.1875C6.74455 17.9948 7.39711 18.9367 9.12918 18.98C10.8523 18.9328 11.4998 17.991 11.4998 16.1875V7.82283H15.0156H15.2431H27V10.8549H22.7138V21.9038H18.9705V10.8549H15.2431V15.9683Z" fill="white"/>
</svg>
